X:2514
T:The Last Thought
T: Broon Lock
O:England
S:Vickers Manuscript
M:6/8
L:1/8
K:G
BGG dBB | BGG Ggg | BGG dBB | eAA ABc | \
BGG dBB | ecc dBB | ecc dBB | eGG GAB :|
d3 e/2f/2ge | d3/2 G GAB | d3 e/2f/2ge | a2 A ABc | \
d3 e/2f/2ge | dBd e/2f/2gA | cac BfB | gAA ABc :|